Gurmukhi/0A72.svg

<svg enable-background="new 0 0 336 592" viewBox="0 0 336 592" xmlns="http://www.w3.org/2000/svg"><path d="m147.734543 278.448059c-25.227356-10.740662-38.150032-30.237564-41.763779-56.394974-.541069-3.916397-1.865692-5.090774-5.575981-4.951278-5.822998.218902-11.665924-.098282-17.489525.112396-3.384498.122452-5.252792-1.173996-6.276314-4.343872-1.1753-3.639908-2.70301-7.164398-3.965103-10.778321-1.792991-5.134094-.830284-6.732025 4.764656-6.855621 8.150574-.180038 16.30996.085404 24.465393.068451 18.652497-.038788 37.30484-.180038 55.957322-.195633 34.48793-.028839 68.975921-.005096 103.463882.012497 14.789307.007553 14.789307.025467 19.895111 13.831711 2.350311 6.355408 1.121643 8.152374-5.690369 8.174713-9.663208.031677-19.332153.20903-28.987426-.067627-4.668686-.133758-6.36966 1.192108-6.304764 6.151993.263763 20.156158.119629 40.31781.10025 60.477447-.007995 8.319764-3.427231 11.700989-11.740555 11.717469-20.403961.040405-40.582809 1.566833-59.859527 9.058349-13.823883 5.372315-26.220124 12.93042-36.782898 23.466767-2.794129 2.787201-3.063141 4.955566-.568924 8.064819 16.033951 19.987671 36.099731 31.967682 62.397659 30.538086 14.725113-.800507 27.667389-6.798828 38.812912-16.513825 1.63205-1.422607 3.182953-2.938995 4.828049-4.345764 2.596344-2.220154 5.139877-2.336303 7.279907.584564 3.44577 4.702973 6.776611 9.48996 10.191544 14.215821 1.468856 2.032715 1.565292 3.799988-.290177 5.762237-13.545547 14.325074-29.772766 23.583313-49.637802 25.047333-38.344498 2.825928-66.159836-15.672851-88.490562-44.725342-4.58403-5.963867-7.974938-12.648407-11.234001-19.421356-1.507706-3.133301-1.259964-5.335388.892028-8.103546 12.367218-15.908081 27.835419-27.587524 46.572861-34.961761 1.083984-.426606 2.170013-.85022 3.236237-1.318177.269943-.118438.467331-.402282 1.066574-.942138-3.115952-1.132569-6.010178-2.184601-9.266678-3.365418m59.594208-61.29483c-21.986084.006027-43.972153.009811-65.958237.019165-9.06044.00386-9.364136.055847-7.980042 9.090957 3.20604 20.928589 14.161942 35.904557 34.460587 43.312943 14.126968 5.155853 28.860031 4.023407 43.47525 4.068054 2.348786.007172 3.154419-1.182495 3.13179-3.462372-.156875-15.8078-.350036-31.616913-.271148-47.424301.022033-4.418258-1.655518-6.147964-6.8582-5.604446z"/></svg>

<svg version="1.1" id="Layer_1" xmlns="http://www.w3.org/2000/svg" xmlns:xlink="http://www.w3.org/1999/xlink" x="0px" y="0px"
	 width="100%" viewBox="0 0 336 592" enable-background="new 0 0 336 592" xml:space="preserve">
<path fill="#000000" opacity="1.000000" stroke="none" 
	d="
M147.734543,278.448059 
	C122.507187,267.707397 109.584511,248.210495 105.970764,222.053085 
	C105.429695,218.136688 104.105072,216.962311 100.394783,217.101807 
	C94.571785,217.320709 88.728859,217.003525 82.905258,217.214203 
	C79.520760,217.336655 77.652466,216.040207 76.628944,212.870331 
	C75.453644,209.230423 73.925934,205.705933 72.663841,202.092010 
	C70.870850,196.957916 71.833557,195.359985 77.428497,195.236389 
	C85.579071,195.056351 93.738457,195.321793 101.893890,195.304840 
	C120.546387,195.266052 139.198730,195.124802 157.851212,195.109207 
	C192.339142,195.080368 226.827133,195.104111 261.315094,195.121704 
	C276.104401,195.129257 276.104401,195.147171 281.210205,208.953415 
	C283.560516,215.308823 282.331848,217.105789 275.519836,217.128128 
	C265.856628,217.159805 256.187683,217.337158 246.532410,217.060501 
	C241.863724,216.926743 240.162750,218.252609 240.227646,223.212494 
	C240.491409,243.368652 240.347275,263.530304 240.327896,283.689941 
	C240.319901,292.009705 236.900665,295.390930 228.587341,295.407410 
	C208.183380,295.447815 188.004532,296.974243 168.727814,304.465759 
	C154.903931,309.838074 142.507690,317.396179 131.944916,327.932526 
	C129.150787,330.719727 128.881775,332.888092 131.375992,335.997345 
	C147.409943,355.985016 167.475723,367.965027 193.773651,366.535431 
	C208.498764,365.734924 221.441040,359.736603 232.586563,350.021606 
	C234.218613,348.598999 235.769516,347.082611 237.414612,345.675842 
	C240.010956,343.455688 242.554489,343.339539 244.694519,346.260406 
	C248.140289,350.963379 251.471130,355.750366 254.886063,360.476227 
	C256.354919,362.508942 256.451355,364.276215 254.595886,366.238464 
	C241.050339,380.563538 224.823120,389.821777 204.958084,391.285797 
	C166.613586,394.111725 138.798248,375.612946 116.467522,346.560455 
	C111.883492,340.596588 108.492584,333.912048 105.233521,327.139099 
	C103.725815,324.005798 103.973557,321.803711 106.125549,319.035553 
	C118.492767,303.127472 133.960968,291.448029 152.698410,284.073792 
	C153.782394,283.647186 154.868423,283.223572 155.934647,282.755615 
	C156.204590,282.637177 156.401978,282.353333 157.001221,281.813477 
	C153.885269,280.680908 150.991043,279.628876 147.734543,278.448059 
M207.328751,217.153229 
	C185.342667,217.159256 163.356598,217.163040 141.370514,217.172394 
	C132.310074,217.176254 132.006378,217.228241 133.390472,226.263351 
	C136.596512,247.191940 147.552414,262.167908 167.851059,269.576294 
	C181.978027,274.732147 196.711090,273.599701 211.326309,273.644348 
	C213.675095,273.651520 214.480728,272.461853 214.458099,270.181976 
	C214.301224,254.374176 214.108063,238.565063 214.186951,222.757675 
	C214.208984,218.339417 212.531433,216.609711 207.328751,217.153229 
z"/>
</svg>
